svg/y37/y37.0503-2.svg

<?xml version="1.0" encoding="UTF-8" standalone="no"?>
<!-- 由 Microsoft Visio, SVG Export 產生 y37.0503-2.svg 頁-1 -->
<!-- 檔名勿刪 y37.0503-2.svg -->
<svg
   xmlns:v="http://schemas.microsoft.com/visio/2003/SVGExtensions/"
   xmlns:dc="http://purl.org/dc/elements/1.1/"
   xmlns:cc="http://creativecommons.org/ns#"
   xmlns:rdf="http://www.w3.org/1999/02/22-rdf-syntax-ns#"
   xmlns:svg="http://www.w3.org/2000/svg"
   xmlns="http://www.w3.org/2000/svg"
   xmlns:sodipodi="http://sodipodi.sourceforge.net/DTD/sodipodi-0.dtd"
   xmlns:inkscape="http://www.inkscape.org/namespaces/inkscape"
   width="35"
   height="40"
   xml:space="preserve"
   color-interpolation-filters="sRGB"
   class="st2"
   version="1.1"
   id="svg36"
   sodipodi:docname="y37.0503-7.svg"
   inkscape:version="0.92.2 (5c3e80d, 2017-08-06)"><metadata
     id="metadata42"><rdf:RDF><cc:Work
         rdf:about=""><dc:format>image/svg+xml</dc:format><dc:type
           rdf:resource="http://purl.org/dc/dcmitype/StillImage" /><dc:title /></cc:Work></rdf:RDF></metadata><defs
     id="defs40" /><sodipodi:namedview
     pagecolor="#ffffff"
     bordercolor="#666666"
     borderopacity="1"
     objecttolerance="10"
     gridtolerance="10"
     guidetolerance="10"
     inkscape:pageopacity="0"
     inkscape:pageshadow="2"
     inkscape:window-width="1920"
     inkscape:window-height="974"
     id="namedview38"
     showgrid="false"
     inkscape:zoom="1.01"
     inkscape:cx="-55.528202"
     inkscape:cy="268.464"
     inkscape:window-x="-9"
     inkscape:window-y="-9"
     inkscape:window-maximized="1"
     inkscape:current-layer="svg36" /><v:documentProperties
     v:langID="1028"
     v:metric="true"
     v:viewMarkup="false" /><style
     type="text/css"
     id="style22"><![CDATA[
		.st1 {fill:#000000;stroke:none;stroke-linecap:butt;stroke-width:6.12}
		.st2 {fill:none;fill-rule:evenodd;font-size:12px;overflow:visible;stroke-linecap:square;stroke-miterlimit:3}
	]]></style><g
     v:mID="0"
     v:index="1"
     v:groupContext="foregroundPage"
     id="g34"
     transform="matrix(0.0625,0,0,0.0625,6.020995,8.6810895)"><title
       id="title24">頁-1</title><v:pageProperties
       v:drawingScale="1"
       v:pageScale="1"
       v:drawingUnits="19"
       v:shadowOffsetX="9"
       v:shadowOffsetY="-9" /><g
       id="group2-1"
       transform="translate(6.12,-6.12)"
       v:mID="2"
       v:groupContext="group"><title
         id="title26">工作表.2</title><g
         id="shape1-2"
         v:mID="1"
         v:groupContext="shape"><title
           id="title28">XMLID_4_</title><path
           d="m 206.24,250.31 v 15.3 h 149.94 c 1.84,0 3.06,0.61 4.29,1.22 1.22,0.61 2.45,1.84 3.06,3.67 0.61,1.84 1.83,3.68 1.83,6.74 0,3.06 0.62,6.12 0.62,9.79 0,3.67 0,6.73 -0.62,9.79 -0.61,2.45 -1.22,4.9 -1.83,6.73 -0.61,1.84 -1.84,3.06 -3.06,3.67 -1.23,0.62 -2.45,0.62 -4.29,0.62 H 206.24 v 85.06 c 0,1.84 -0.61,3.06 -1.22,4.29 -0.61,1.22 -2.45,2.45 -4.28,3.06 -1.84,0.61 -4.9,1.22 -7.96,1.83 -3.67,0.62 -7.34,0.62 -12.24,0.62 -4.9,0 -9.18,0 -12.24,-0.62 -3.06,-0.61 -6.12,-1.22 -7.96,-1.83 -1.83,-0.61 -3.67,-1.84 -4.28,-3.06 -0.61,-1.23 -1.22,-2.45 -1.22,-4.29 V 307.84 H 10.4 c -1.83,0 -3.06,-0.62 -4.89,-1.23 C 4.28,306 3.06,304.78 2.45,302.94 1.84,301.1 1.22,299.27 0.61,296.21 0,293.76 0,290.09 0,286.42 c 0,-3.68 0,-6.74 0.61,-9.18 0.61,-2.45 1.23,-4.9 1.84,-6.74 0.61,-1.83 1.83,-3.06 3.06,-3.67 1.22,-0.61 3.06,-1.22 4.89,-1.22 l 143.82,0.61 v -15.3 L 45.29,32.44 C 42.84,28.15 41.62,24.48 41,21.42 c -0.61,-2.45 0,-4.28 1.23,-6.12 1.22,-1.22 4.28,-2.45 7.95,-2.45 3.68,-0.61 9.18,-0.61 15.92,-0.61 6.12,0 11.01,0 14.68,0.61 3.68,0.61 6.74,1.23 8.57,1.84 2.45,0.61 3.67,1.83 4.9,3.06 1.22,1.22 1.83,3.06 3.06,4.89 l 53.24,111.39 c 4.9,10.4 9.79,21.42 14.69,33.05 4.9,11.62 9.79,23.25 15.3,34.88 h 0.61 c 4.29,-11.63 9.18,-22.64 14.08,-33.66 4.89,-11.02 9.79,-22.64 14.69,-33.05 L 263.77,23.26 c 0.61,-1.84 1.23,-3.68 2.45,-4.9 1.22,-1.22 2.45,-2.45 4.28,-3.06 1.84,-0.61 4.29,-1.22 7.96,-1.84 3.67,-0.61 7.96,-0.61 12.85,-0.61 7.35,0 12.85,0 17.14,0.61 4.28,0.62 6.73,1.23 8.57,3.06 1.83,1.23 1.83,3.68 1.83,6.12 -0.61,2.45 -1.83,6.12 -4.28,10.41 z"
           class="st1"
           id="path30"
           inkscape:connector-curvature="0"
           style="fill:#000000;stroke:none;stroke-width:6.11999989;stroke-linecap:butt" /></g></g></g></svg>

<?xml version="1.0" encoding="UTF-8" standalone="no"?>
<!DOCTYPE svg PUBLIC "-//W3C//DTD SVG 1.1//EN" "http://www.w3.org/Graphics/SVG/1.1/DTD/svg11.dtd">
<!-- 由 Microsoft Visio, SVG Export 產生 y37.0503-2.svg 頁-1 -->
<svg xmlns="http://www.w3.org/2000/svg" xmlns:xlink="http://www.w3.org/1999/xlink" xmlns:ev="http://www.w3.org/2001/xml-events"
		xmlns:v="http://schemas.microsoft.com/visio/2003/SVGExtensions/" width="5.253in" height="5.593in"
		viewBox="0 0 378.216 402.696" xml:space="preserve" color-interpolation-filters="sRGB" class="st2">
	<v:documentProperties v:langID="1028" v:metric="true" v:viewMarkup="false"/>

	<style type="text/css">
	<![CDATA[
		.st1 {fill:#000000;stroke:none;stroke-linecap:butt;stroke-width:6.12}
		.st2 {fill:none;fill-rule:evenodd;font-size:12px;overflow:visible;stroke-linecap:square;stroke-miterlimit:3}
	]]>
	</style>

	<g v:mID="0" v:index="1" v:groupContext="foregroundPage">
		<title>頁-1</title>
		<v:pageProperties v:drawingScale="1" v:pageScale="1" v:drawingUnits="19" v:shadowOffsetX="9" v:shadowOffsetY="-9"/>
		<g id="group2-1" transform="translate(6.12,-6.12)" v:mID="2" v:groupContext="group">
			<title>工作表.2</title>
			<g id="shape1-2" v:mID="1" v:groupContext="shape">
				<title>XMLID_4_</title>
				<path d="M206.24 250.31 L206.24 265.61 L356.18 265.61 C358.02 265.61 359.24 266.22 360.47 266.83 C361.69 267.44 362.92
							 268.67 363.53 270.5 C364.14 272.34 365.36 274.18 365.36 277.24 C365.36 280.3 365.98 283.36 365.98 287.03
							 C365.98 290.7 365.98 293.76 365.36 296.82 C364.75 299.27 364.14 301.72 363.53 303.55 C362.92 305.39
							 361.69 306.61 360.47 307.22 C359.24 307.84 358.02 307.84 356.18 307.84 L206.24 307.84 L206.24 392.9
							 C206.24 394.74 205.63 395.96 205.02 397.19 C204.41 398.41 202.57 399.64 200.74 400.25 C198.9 400.86
							 195.84 401.47 192.78 402.08 C189.11 402.7 185.44 402.7 180.54 402.7 C175.64 402.7 171.36 402.7 168.3
							 402.08 C165.24 401.47 162.18 400.86 160.34 400.25 C158.51 399.64 156.67 398.41 156.06 397.19 C155.45
							 395.96 154.84 394.74 154.84 392.9 L154.84 307.84 L10.4 307.84 C8.57 307.84 7.34 307.22 5.51 306.61 C4.28
							 306 3.06 304.78 2.45 302.94 C1.84 301.1 1.22 299.27 0.61 296.21 C0 293.76 0 290.09 0 286.42 C0 282.74
							 0 279.68 0.61 277.24 C1.22 274.79 1.84 272.34 2.45 270.5 C3.06 268.67 4.28 267.44 5.51 266.83 C6.73
							 266.22 8.57 265.61 10.4 265.61 L154.22 266.22 L154.22 250.92 L45.29 32.44 C42.84 28.15 41.62 24.48 41
							 21.42 C40.39 18.97 41 17.14 42.23 15.3 C43.45 14.08 46.51 12.85 50.18 12.85 C53.86 12.24 59.36 12.24
							 66.1 12.24 C72.22 12.24 77.11 12.24 80.78 12.85 C84.46 13.46 87.52 14.08 89.35 14.69 C91.8 15.3 93.02
							 16.52 94.25 17.75 C95.47 18.97 96.08 20.81 97.31 22.64 L150.55 134.03 C155.45 144.43 160.34 155.45 165.24
							 167.08 C170.14 178.7 175.03 190.33 180.54 201.96 L181.15 201.96 C185.44 190.33 190.33 179.32 195.23
							 168.3 C200.12 157.28 205.02 145.66 209.92 135.25 L263.77 23.26 C264.38 21.42 265 19.58 266.22 18.36
							 C267.44 17.14 268.67 15.91 270.5 15.3 C272.34 14.69 274.79 14.08 278.46 13.46 C282.13 12.85 286.42 12.85
							 291.31 12.85 C298.66 12.85 304.16 12.85 308.45 13.46 C312.73 14.08 315.18 14.69 317.02 16.52 C318.85
							 17.75 318.85 20.2 318.85 22.64 C318.24 25.09 317.02 28.76 314.57 33.05 L206.24 250.31 Z" class="st1"/>
			</g>
		</g>
	</g>
</svg>
